src/pos-icons/axis-y-rotate-clockwise.svg

<svg height="24" viewBox="0 0 24 24" width="24" xmlns="http://www.w3.org/2000/svg"><path d="m12 10 4 4 4-4h-3.1c-.46-4.56-2.48-8-4.9-8-1.88 0-3.53 2.08-4.38 5.16l1.75 1.01c.5-2.48 1.49-4.17 2.63-4.17 1.4 0 2.57 2.55 2.91 6zm-10.89-3.13 12.78 7.38.07-.79-3.46-3.46h.04l-8.43-4.87zm20.78 12 1-1.74-5.01-2.89c-.09.73-.21 1.43-.38 2.1zm-9.89 3.13c2.3 0 4.23-3.1 4.82-7.32l-.82.82-1.13-1.13c-.37 3.26-1.52 5.63-2.87 5.63-1.58 0-2.88-3.27-3-7.42l-2-1.15v.57c0 5.5 2.24 10 5 10z"/></svg>

<?xml version="1.0" encoding="UTF-8"?><!DOCTYPE svg PUBLIC "-//W3C//DTD SVG 1.1//EN" "http://www.w3.org/Graphics/SVG/1.1/DTD/svg11.dtd"><svg xmlns="http://www.w3.org/2000/svg" xmlns:xlink="http://www.w3.org/1999/xlink" version="1.1" id="mdi-axis-y-rotate-clockwise" width="24" height="24" viewBox="0 0 24 24"><path d="M12,10L16,14L20,10H16.9C16.44,5.44 14.42,2 12,2C10.12,2 8.47,4.08 7.62,7.16L9.37,8.17C9.87,5.69 10.86,4 12,4C13.4,4 14.57,6.55 14.91,10H12M1.11,6.87L13.89,14.25L13.96,13.46L10.5,10H10.54L2.11,5.13L1.11,6.87M21.89,18.87L22.89,17.13L17.88,14.24C17.79,14.97 17.67,15.67 17.5,16.34L21.89,18.87M12,22C14.3,22 16.23,18.9 16.82,14.68L16,15.5L14.87,14.37C14.5,17.63 13.35,20 12,20C10.42,20 9.12,16.73 9,12.58L7,11.43V12C7,17.5 9.24,22 12,22Z" /></svg>
